X: 41024
T: Trip To Kilfenora
R: reel
M: 4/4
K: Dmajor
ABc|:d2 Ad cEGB|AdcB ADFA|G2 EG FEDF|CDEF GABc|
d2 Ad cEGB|AdcB ADFA|G2 EG FEDF|1 EDCE D3c:|2 EDCE D2FG||
|:AdBA FDFG|AdBA F2 DF|GEEE GFED|cEBE A2 FG|
AdBA FDFG|AdBA F2 DF|GEEE GFED|1 cABcd2FG:|2 cABc d||

